X: 1
T: la Turlutte de Antoine
T: la Turlette de Antoine
O: from "Les T\^etes de Violon" CD
R: reel
S: Fiddle Hell Online 2022-4-10 handout for Abby Newton workshop
Z: 2022 John Chambers <jc:trillian.mit.edu>
M: 4/4
L: 1/8
K: Dm
# = = = = = = = = = =
V: 1 staves=2
|:\
"Dm"(Ad) dA d2A2 | d2(de) d2cB | "Am"ABc(d cB)AB | c2(cB) A2G2 ||\
"Dm"(Ad) dA d2A2 | d2(de) d2cB | "C"AG AB c2E2 | "Am"F2(EF) "Dm"D2D2 :|
|:\
"Dm"DEFG A2G2 | ABc2 "Am"uC3uC | "C"C2E2 C2E2 | "Am"CE FE D2C2 ||\
"Dm"DEFG A2G2 | FG AB "Am"c2E2 | "C"F2(EF) "Dm"D2D2 :|
# = = = = = = = = = =
V: 2 clef=bass middle=D
|:\
"Dm"D,2 D4 D,2 | D4 F2D2 | "Am"A,4 C2E2 | z2A,2 C2A,2 ||\
"Dm"D,2 D4 D,2 | D2D2 F2D2 | "C"C4 C,2C2 | "Am"A,2A2 D2D,2 :|
|:\
"Dm"D,2 D4 D2- | D2F2 "Am"A,4 | "C"C,2C2 C,2C2 | "Am"A,2A2 A2A,2 ||\
"Dm"D,2 D4 D2- | D2F2 "Am"A,4 | "C"C2C,2 "Dm"D,2D2 :|
